!!!!SEGMENT: pl-stab--75a--004_rodowski-aleksander--missa-pastorales-et-incarnatus.krn
!!!cenid: 18xx:3407
!!!COM: Rodowski, Aleksander
!!!COM-rismid: pe30009627
!!!CDT: <1790->1810
!!!CNT: Polish
!!!OPR: Missa Pastorales
!!!OTL: Et incarnatus
!!!OMV: 004
!!!PDT: 1850
!!!AGN:
!!!SMS-siglum: PL-STAb
!!!SMS-shelfmark: 75a
!!!SMS-shelfwork: M
!!!SMS-variant: Partytura PL-STAb 75a:4
!!!SMS-altvar: Canto PL-STAb 75a:6, Organo PL-STAb 75a:8
!!!NIFC-rismid: 301050718
!!!URL-scan: https://repozytorium.nifc.pl/islandora/object/pl-stab%3A4458/datastream/PDF/view
!!!ONB-nifc: UWAGA: na podstawie partytury (s. 3-5, 10-11). W źródle znajdują się także głosy. Proszę o wypełnienie pól SMS:variant i SMS:altvar. UWAGA: części Mszy: 1. Kyrie, 2. Gloria, 3. Credo, 4. Et incarnatus, 5. Sanctus, 6. Benedictus, 7. Agnus Dei
!!!key: B
!!!OMD: Andante
**kern	**kern	**kern	**kern	**text
*part3	*part3	*part2	*part1	*part1
*staff4	*staff3	*staff2	*staff1	*staff1
*I"Organo	*I"Organo	*I"Basſ	*I"Canty	*
*Iorgan	*Iorgan	*Ibass	*Isoprn	*
*ICklav	*ICklav	*ICvox	*ICvox	*
*IGacmp	*IGacmp	*IGcoro	*IGcoro	*
*clefF4	*clefG2	*clefF4	*clefG2	*
*k[b-e-]	*k[b-e-]	*k[b-e-]	*k[b-e-]	*
*B:	*B:	*B:	*B:	*
*M3/4	*M3/4	*M3/4	*M3/4	*
=1	=1	=1	=1	=1
*	*	*	*	*above
4B- 4F 4BB-\	8b-\L	4BB-/	8b-\L	Et
.	8dd\J	.	8ddJ 8b-\	in-
4B- 4F 4BB-\	4.ff\	4.B-\	4.ff 4.dd\	-Car-
4B- 4F 4BB-\	.	.	.	.
.	8dd\	8B-\	8dd 8b-\	-na-
=2	=2	=2	=2	=2
*	*	*	*^	*
4F 4C 4FF\	(16cc\LL	8F\	(16cc\LL	16e-\LL	-tus
.	16b-\	.	16b-\	16d\	.
.	16cc\	8F\	16cc\	16e-\	.
.	16dd\JJ)	.	16dd\JJ)	16f\JJ	.
8B-L 8BB-\	8b-\L	4D\	4b-\	4d\	est
8F 8D\	8f\	.	.	.	.
8G 8E-\	8g\	4r	4r	4ryy	.
8FJ 8AA\	8a\J	.	.	.	.
*	*	*	*v	*v	*
=3	=3	=3	=3	=3
4B- 4F 4D 4BB-\	8b-\L	8BB-/	8b-\L	de
.	8dd\J	8BB-/	8ddJ 8b-\	Spi-
4B- 4F 4D 4BB-\	4.ff\	4.B-\	4.ff 4.dd\	-ri-
4B- 4F 4BB-\	.	.	.	.
.	8dd\	8B-\	8dd 8b-\	-tu
=4	=4	=4	=4	=4
*	*	*	*^	*
!	!	!	!LO:TX:t=P:problem=zapis niepewny, poprawiane nuty	!	!
4F 4C 4FF\	16ee-\LL	16c\LL	16ee-LL\	16ryy	Sanc-
.	(16dd\	16B-\	(16dd\	16b-\LL	.
.	16cc\	16A\	16cc\	16a\	.
.	16dd\JJ)	16B-\JJ	16ddJJ\)	16b-\JJ	.
4F 4C 4FF\	(16cc\LL	4A\	4cc 4a\	2ryy	-to.
.	16ff\	.	.	.	.
.	16cc\	.	.	.	.
.	16a\JJ)	.	.	.	.
4F 4C 4FF\	4f/	4r	4r	.	.
*	*	*	*v	*v	*
=5	=5	=5	=5	=5
4F 4C 4FF\	(16ff#X\LL	2.r	2.r	.
.	16gg\	.	.	.
.	16ee-\	.	.	.
.	16cc\JJ)	.	.	.
4F 4C 4FF\	(16ff#\LL	.	.	.
.	16gg\	.	.	.
.	16ee-\	.	.	.
.	16cc\JJ)	.	.	.
4F 4D 4BB-\	(16een\LL	.	.	.
.	16ff#\	.	.	.
.	16dd\	.	.	.
.	16b-\JJ)	.	.	.
=6	=6	=6	=6	=6
4F 4C 4FF\	16b-\LL	2.r	2.r	.
.	16a\J	.	.	.
.	8a\J	.	.	.
4F 4C 4FF\	8f\L	.	.	.
.	16g\L	.	.	.
.	16a\JJ	.	.	.
4F 4D 4BB-\	16b-\LL	.	.	.
.	16cc\	.	.	.
.	16dd\	.	.	.
.	16ee-X\JJ	.	.	.
!!LO:LB:g=original
=7	=7	=7	=7	=7
4F 4C 4FF\	(16ff#X\LL	2.r	2.r	.
.	16gg\	.	.	.
.	16ee-\	.	.	.
.	16cc\JJ)	.	.	.
4F 4C 4FF\	(16ff#\LL	.	.	.
.	16gg\	.	.	.
.	16ee-\	.	.	.
.	16cc\JJ)	.	.	.
4F 4D 4BB-\	(16een\LL	.	.	.
.	16ff#\	.	.	.
.	16dd\	.	.	.
.	16b-\JJ)	.	.	.
=8	=8	=8	=8	=8
4F 4C 4FF\	16b-\LL	2.r	2.r	.
.	16a\J	.	.	.
.	8.a\J	.	.	.
4F 4C 4FF\	.	.	.	.
.	16f\LL	.	.	.
.	16g\	.	.	.
.	16a\JJ	.	.	.
4F 4D 4BB-\	4b-\	.	.	.
=9	=9	=9	=9	=9
4F 4C 4FF\	(16ff#X\LL	2.r	2.r	.
.	16gg\	.	.	.
.	16ee-\	.	.	.
.	16cc\JJ)	.	.	.
4F 4C 4FF\	(16ff#\LL	.	.	.
.	16gg\	.	.	.
.	16ee-\	.	.	.
.	16cc\JJ)	.	.	.
4F 4D 4BB-\	(16een\LL	.	.	.
.	16ff#\	.	.	.
.	16dd\	.	.	.
.	16b-\JJ)	.	.	.
=10	=10	=10	=10	=10
4F 4C 4FF\	16b-\LL	2.r	2.r	.
.	16a\J	.	.	.
.	8.a\J	.	.	.
4F 4C 4FF\	.	.	.	.
.	16f\LL	.	.	.
.	16g\	.	.	.
.	16a\JJ	.	.	.
4F 4D 4BB-\	(16b-\LL	.	.	.
.	16cc\	.	.	.
.	16dd\	.	.	.
.	16ee-\JJ)	.	.	.
=11	=11	=11	=11	=11
4F 4C 4FF\	(16ff#X\LL	2.r	2.r	.
.	16gg\	.	.	.
.	16ee-\	.	.	.
.	16cc\JJ	.	.	.
4F 4C 4FF\	16ff#\LL	.	.	.
.	16gg\	.	.	.
.	16ee-\	.	.	.
.	16cc\JJ)	.	.	.
4F 4D 4BB-\	(16een\LL	.	.	.
.	16ff#\	.	.	.
.	16dd\	.	.	.
.	16b-\JJ)	.	.	.
=12	=12	=12	=12	=12
4F 4C 4FF\	16b-\LL	2.r	2.r	.
.	16a\J	.	.	.
.	8.a\J	.	.	.
4F 4C 4FF\	.	.	.	.
.	16f\LL	.	.	.
.	16g\	.	.	.
.	16a\JJ	.	.	.
!LO:TX:b:i:t=Da Capo Credo	!	!	!	!
4F 4D 4BB-\	4b-\	.	.	.
==:|!	==:|!	==:|!	==:|!	==:|!
*-	*-	*-	*-	*-
!!!system-decoration: (<s1,s2>{s3,s4})
!!!AIN: 1 bass 1 organ 1 soprn
!!!ENC: Filip Voros
!!!END: 2021-11-16
!!!ENC: Marta Lawrence
!!!END: 2021-12-12
